src/pos-icons/speaker-off.svg

<svg height="24" viewBox="0 0 24 24" width="24" xmlns="http://www.w3.org/2000/svg"><path d="m2 5.27 1.28-1.27 17.72 17.72-1.27 1.28-1.46-1.46c-.34.29-.77.46-1.27.46h-10c-1.11 0-2-.9-2-2v-11.73zm10 12.73a3 3 0 0 1 -3-3c0-.76.28-1.46.75-2l-1.42-1.4c-.83.9-1.33 2.09-1.33 3.4a5 5 0 0 0 5 5c1.31 0 2.5-.5 3.4-1.33l-1.4-1.42c-.55.47-1.24.75-2 .75m5-3a5 5 0 0 0 -5-5h-.18l-6.7-6.7c.29-.76 1.02-1.3 1.88-1.3h10a2 2 0 0 1 2 2v13.18l-2-2.01zm-5-11c-1.11 0-2 .89-2 2a2 2 0 0 0 2 2 2 2 0 0 0 2-2c0-1.11-.9-2-2-2z"/></svg>

<?xml version="1.0" encoding="UTF-8"?><!DOCTYPE svg PUBLIC "-//W3C//DTD SVG 1.1//EN" "http://www.w3.org/Graphics/SVG/1.1/DTD/svg11.dtd"><svg xmlns="http://www.w3.org/2000/svg" xmlns:xlink="http://www.w3.org/1999/xlink" version="1.1" id="mdi-speaker-off" width="24" height="24" viewBox="0 0 24 24"><path d="M2,5.27L3.28,4L21,21.72L19.73,23L18.27,21.54C17.93,21.83 17.5,22 17,22H7C5.89,22 5,21.1 5,20V8.27L2,5.27M12,18A3,3 0 0,1 9,15C9,14.24 9.28,13.54 9.75,13L8.33,11.6C7.5,12.5 7,13.69 7,15A5,5 0 0,0 12,20C13.31,20 14.5,19.5 15.4,18.67L14,17.25C13.45,17.72 12.76,18 12,18M17,15A5,5 0 0,0 12,10H11.82L5.12,3.3C5.41,2.54 6.14,2 7,2H17A2,2 0 0,1 19,4V17.18L17,15.17V15M12,4C10.89,4 10,4.89 10,6A2,2 0 0,0 12,8A2,2 0 0,0 14,6C14,4.89 13.1,4 12,4Z" /></svg>
